X:13037
T:Peter MacKinnon of Skeabost
S:Alistair C
R:Pipe reel
O:Scotland
M:4/4
K:Hp
B2cB BfB2|feef a3e|f2ef fce2|fccB A2(3cBA|\
B2cB BfB2|feef a3e|
faaf a2ca|feac (3BBBB2::\
feef a3e|f2ef fce2|
fccf e2cB|(3AAA Af ecBA|\
feef a3e|f2ef fce2|faaf a2ca|feac (3BBB B2::
B2fe efB2|feef e3e|fccB (3AAA Ac|Aeef ecBA|\
B2fe efB2|feef e3e|
faaf a2ca|feac (3BBB B2::\
faac (3BBB Be|fefa f2ec|
ecef cAAB|ceef ecBA|\
faac (3BBB Be|fefa f2fe|faaf a2ca|feac (3BBBB2:|
